src/assets/outline/DollarSquare.svg

<svg width="24" height="24" viewBox="0 0 24 24"  xmlns="http://www.w3.org/2000/svg">
<path d="M13.4002 17.42H10.8902C9.25016 17.42 7.92016 16.04 7.92016 14.34C7.92016 13.93 8.26016 13.59 8.67016 13.59C9.08016 13.59 9.42016 13.93 9.42016 14.34C9.42016 15.21 10.0802 15.92 10.8902 15.92H13.4002C14.0502 15.92 14.5902 15.34 14.5902 14.64C14.5902 13.77 14.2802 13.6 13.7702 13.42L9.74016 12C8.96016 11.73 7.91016 11.15 7.91016 9.36002C7.91016 7.82002 9.12016 6.58002 10.6002 6.58002H13.1102C14.7502 6.58002 16.0802 7.96002 16.0802 9.66002C16.0802 10.07 15.7402 10.41 15.3302 10.41C14.9202 10.41 14.5802 10.07 14.5802 9.66002C14.5802 8.79002 13.9202 8.08002 13.1102 8.08002H10.6002C9.95016 8.08002 9.41016 8.66002 9.41016 9.36002C9.41016 10.23 9.72016 10.4 10.2302 10.58L14.2602 12C15.0402 12.27 16.0902 12.85 16.0902 14.64C16.0802 16.17 14.8802 17.42 13.4002 17.42Z" />
<path d="M12 18.75C11.59 18.75 11.25 18.41 11.25 18V6C11.25 5.59 11.59 5.25 12 5.25C12.41 5.25 12.75 5.59 12.75 6V18C12.75 18.41 12.41 18.75 12 18.75Z" />
<path d="M15 22.75H9C3.57 22.75 1.25 20.43 1.25 15V9C1.25 3.57 3.57 1.25 9 1.25H15C20.43 1.25 22.75 3.57 22.75 9V15C22.75 20.43 20.43 22.75 15 22.75ZM9 2.75C4.39 2.75 2.75 4.39 2.75 9V15C2.75 19.61 4.39 21.25 9 21.25H15C19.61 21.25 21.25 19.61 21.25 15V9C21.25 4.39 19.61 2.75 15 2.75H9Z" />
</svg>

<?xml version="1.0" encoding="UTF-8"?>
<svg width="24" height="24" viewBox="0 0 24 24" xmlns="http://www.w3.org/2000/svg">
 <path d="m13.4 17.42h-2.51c-1.64 0-2.97-1.38-2.97-3.08 0-0.41 0.34-0.75 0.75-0.75s0.75 0.34 0.75 0.75c0 0.87 0.66004 1.58 1.47 1.58h2.51c0.65 0 1.19-0.58 1.19-1.28 0-0.87-0.31-1.04-0.82-1.22l-4.03-1.42c-0.78-0.27-1.83-0.85-1.83-2.64 0-1.54 1.21-2.78 2.69-2.78h2.51c1.64 0 2.97 1.38 2.97 3.08 0 0.40998-0.34 0.74998-0.75 0.74998s-0.75-0.34-0.75-0.74998c0-0.87-0.66-1.58-1.47-1.58h-2.51c-0.65004 0-1.19 0.58-1.19 1.28 0 0.86998 0.31 1.04 0.82004 1.22l4.03 1.42c0.78 0.27 1.83 0.85 1.83 2.64-0.01 1.53-1.21 2.78-2.69 2.78z"/>
 <path d="m12 18.75c-0.41 0-0.75-0.34-0.75-0.75v-12c0-0.41 0.34-0.75 0.75-0.75s0.75 0.34 0.75 0.75v12c0 0.41-0.34 0.75-0.75 0.75z"/>
 <path d="m15 22.75h-6c-5.43 0-7.75-2.32-7.75-7.75v-6c0-5.43 2.32-7.75 7.75-7.75h6c5.43 0 7.75 2.32 7.75 7.75v6c0 5.43-2.32 7.75-7.75 7.75zm-6-20c-4.61 0-6.25 1.64-6.25 6.25v6c0 4.61 1.64 6.25 6.25 6.25h6c4.61 0 6.25-1.64 6.25-6.25v-6c0-4.61-1.64-6.25-6.25-6.25h-6z"/>
</svg>
